src/pos-icons/octagon-outline.svg

<svg height="24" viewBox="0 0 24 24" width="24" xmlns="http://www.w3.org/2000/svg"><path d="m8.27 3-5.27 5.27v7.46l5.27 5.27h7.46c1.77-1.76 5.27-5.27 5.27-5.27v-7.46l-5.27-5.27m-6.63 2h5.8l4.1 4.1v5.8l-4.1 4.1h-5.8l-4.1-4.1v-5.8"/></svg>

<?xml version="1.0" encoding="UTF-8"?><!DOCTYPE svg PUBLIC "-//W3C//DTD SVG 1.1//EN" "http://www.w3.org/Graphics/SVG/1.1/DTD/svg11.dtd"><svg xmlns="http://www.w3.org/2000/svg" xmlns:xlink="http://www.w3.org/1999/xlink" version="1.1" id="mdi-octagon-outline" width="24" height="24" viewBox="0 0 24 24"><path d="M8.27,3L3,8.27V15.73L8.27,21H15.73C17.5,19.24 21,15.73 21,15.73V8.27L15.73,3M9.1,5H14.9L19,9.1V14.9L14.9,19H9.1L5,14.9V9.1" /></svg>
